assets/images/svg/sketchapp.svg

<?xml version="1.0" encoding="UTF-8" standalone="no"?>
<svg width="256px" height="256px" viewBox="0 0 256 256" version="1.1" xmlns="http://www.w3.org/2000/svg" xmlns:xlink="http://www.w3.org/1999/xlink" preserveAspectRatio="xMidYMid">
	<g>
		<circle fill="#000000" cx="128" cy="128" r="128"></circle>
		<path d="M188.717949,69.3333335 L158.875715,56.2051283 L97.002849,56.2051283 L67.3429516,69.5765699 L42.6666667,96.9875329 L128,210.461538 L213.333333,96.9875329 L188.717949,69.3333335 L188.717949,69.3333335 Z M206.222222,97.7234417 L179.236467,117.916809 L160.045584,89.1623933 L187.198359,76.3835443 L206.222222,97.7234417 L206.222222,97.7234417 Z M169.329413,120.995373 L85.0900969,120.995373 L101.855544,91.2136753 L152.068376,91.3351113 L169.329413,120.995373 L169.329413,120.995373 Z M102.529823,60.6486611 L153.930393,60.6486611 L179.236467,71.8087295 L153.822085,82.8787238 L102.421516,82.8787238 L77.2634986,71.8178463 L102.529823,60.6486611 L102.529823,60.6486611 Z M68.7436581,76.3835443 L94.206906,89.1470771 L75.9732877,117.34865 L49.7197949,97.7234417 L68.7436581,76.3835443 L68.7436581,76.3835443 Z M59.5032251,112.591499 L76.094359,126.579966 L115.566496,191.535772 L59.5032251,112.591499 L59.5032251,112.591499 Z M87.3904501,130.233618 L167.375134,130.233618 L128,202.803419 L87.3904501,130.233618 L87.3904501,130.233618 Z M140.375521,191.535772 L179.847658,126.579966 L196.438792,112.591499 L140.375521,191.535772 L140.375521,191.535772 Z" fill="#36CEF9"></path>
	</g>
</svg>

<svg width="256" height="256" viewBox="0 0 256 256" xmlns="http://www.w3.org/2000/svg" preserveAspectRatio="xMidYMid"><circle cx="128" cy="128" r="128"/><path d="M188.718 69.333l-29.842-13.128H97.003l-29.66 13.372-24.676 27.41L128 210.463l85.333-113.474-24.615-27.655zm17.504 28.39l-26.986 20.194-19.19-28.755 27.152-12.778 19.024 21.34zm-36.893 23.272H85.09l16.766-29.78 50.212.12 17.26 29.66zm-66.8-60.346h51.4l25.306 11.16-25.414 11.07h-51.4l-25.16-11.062 25.268-11.17zM68.744 76.383l25.463 12.763-18.234 28.202L49.72 97.722l19.024-21.34zm-9.24 36.207l16.59 13.99 39.472 64.956-56.063-78.945zm27.886 17.644h79.985L128 202.804l-40.61-72.57zm52.986 61.302l39.472-64.956 16.59-13.99-56.062 78.946z" fill="#36CEF9"/></svg>
